actions/16/edit.svg

<?xml version="1.0" encoding="UTF-8" standalone="no"?>
<svg
   xmlns:dc="http://purl.org/dc/elements/1.1/"
   xmlns:cc="http://creativecommons.org/ns#"
   xmlns:rdf="http://www.w3.org/1999/02/22-rdf-syntax-ns#"
   xmlns:svg="http://www.w3.org/2000/svg"
   xmlns="http://www.w3.org/2000/svg"
   xmlns:sodipodi="http://sodipodi.sourceforge.net/DTD/sodipodi-0.dtd"
   xmlns:inkscape="http://www.inkscape.org/namespaces/inkscape"
   height="16"
   width="16"
   version="1.1"
   id="svg6"
   sodipodi:docname="edit.svg"
   inkscape:version="0.92.2pre0 (973e216, 2017-07-25)">
  <metadata
     id="metadata12">
    <rdf:RDF>
      <cc:Work
         rdf:about="">
        <dc:format>image/svg+xml</dc:format>
        <dc:type
           rdf:resource="http://purl.org/dc/dcmitype/StillImage" />
      </cc:Work>
    </rdf:RDF>
  </metadata>
  <defs
     id="defs10" />
  <sodipodi:namedview
     pagecolor="#ffffff"
     bordercolor="#666666"
     borderopacity="1"
     objecttolerance="10"
     gridtolerance="10"
     guidetolerance="10"
     inkscape:pageopacity="0"
     inkscape:pageshadow="2"
     inkscape:window-width="1920"
     inkscape:window-height="1001"
     id="namedview8"
     showgrid="false"
     inkscape:zoom="14.75"
     inkscape:cx="-3.5254237"
     inkscape:cy="8"
     inkscape:window-x="0"
     inkscape:window-y="0"
     inkscape:window-maximized="1"
     inkscape:current-layer="g4" />
  <g
     transform="translate(-32 -80)"
     id="g4">
    <path
       d="M44.238 81l-.353.36-8.969 9.095-.03.045c-.061.099-.27.45-.583 1.088-.314.638-.7 1.51-1.012 2.492L33 95l.92-.291a18.163 18.163 0 0 0 2.492-1.012c.638-.314.987-.52 1.088-.584l.045-.029L47 83.762zM44 89v1h3v-1zm-8.11 1.89l1.22 1.22-.178.175c.007-.005-.379.227-.961.514-.214.105-.536.222-.834.338l-.274-.274c.116-.298.233-.62.338-.834.287-.582.518-.966.514-.96zM42 91v1h5v-1zm-2 2v1h7v-1z"
       fill="gray"
       font-family="Ubuntu"
       font-size="15"
       font-weight="400"
       letter-spacing="0"
       style="line-height:125%;-inkscape-font-specification:Ubuntu;text-align:center;fill:#808080;fill-opacity:1"
       text-anchor="middle"
       word-spacing="0"
       id="path2" />
  </g>
</svg>

<svg xmlns="http://www.w3.org/2000/svg" width="16" height="16" version="1.1">
 <g transform="translate(-32,-80)">
  <path style="fill:#808080" d="M 44.238,81 43.885,81.36 34.916,90.455 34.886,90.5 C 34.825,90.599 34.616,90.95 34.303,91.588 33.989,92.226 33.603,93.098 33.291,94.08 L 33,95 33.92,94.709 A 18.163,18.163 0 0 0 36.412,93.697 C 37.05,93.383 37.399,93.177 37.5,93.113 L 37.545,93.084 47,83.762 Z M 44,89 V 90 H 47 V 89 Z M 35.89,90.89 37.11,92.11 36.932,92.285 C 36.939,92.28 36.553,92.512 35.971,92.799 35.757,92.904 35.435,93.021 35.137,93.137 L 34.863,92.863 C 34.979,92.565 35.096,92.243 35.201,92.029 35.488,91.447 35.719,91.063 35.715,91.069 Z M 42,91 V 92 H 47 V 91 Z M 40,93 V 94 H 47 V 93 Z"/>
 </g>
</svg>
